app/assets/images/heroicons/micro/code-bracket-square.svg

<svg width="16" height="16" viewBox="0 0 16 16" fill="none" xmlns="http://www.w3.org/2000/svg">
<path fill-rule="evenodd" clip-rule="evenodd" d="M2 4C2 2.89543 2.89543 2 4 2H12C13.1046 2 14 2.89543 14 4V12C14 13.1046 13.1046 14 12 14H4C2.89543 14 2 13.1046 2 12V4ZM6.78033 5.96967C7.07322 6.26256 7.07322 6.73744 6.78033 7.03033L5.81066 8L6.78033 8.96967C7.07322 9.26256 7.07322 9.73744 6.78033 10.0303C6.48744 10.3232 6.01256 10.3232 5.71967 10.0303L4.21967 8.53033C3.92678 8.23744 3.92678 7.76256 4.21967 7.46967L5.71967 5.96967C6.01256 5.67678 6.48744 5.67678 6.78033 5.96967ZM9.21967 7.03033C8.92678 6.73744 8.92678 6.26256 9.21967 5.96967C9.51256 5.67678 9.98744 5.67678 10.2803 5.96967L11.7803 7.46967C12.0732 7.76256 12.0732 8.23744 11.7803 8.53033L10.2803 10.0303C9.98744 10.3232 9.51256 10.3232 9.21967 10.0303C8.92678 9.73744 8.92678 9.26256 9.21967 8.96967L10.1893 8L9.21967 7.03033Z" fill="black"/>
</svg>

<svg xmlns="http://www.w3.org/2000/svg" viewBox="0 0 16 16" fill="currentColor" aria-hidden="true" data-slot="icon">
  <path fill-rule="evenodd" d="M2 4a2 2 0 0 1 2-2h8a2 2 0 0 1 2 2v8a2 2 0 0 1-2 2H4a2 2 0 0 1-2-2V4Zm4.78 1.97a.75.75 0 0 1 0 1.06L5.81 8l.97.97a.75.75 0 1 1-1.06 1.06l-1.5-1.5a.75.75 0 0 1 0-1.06l1.5-1.5a.75.75 0 0 1 1.06 0Zm2.44 1.06a.75.75 0 0 1 1.06-1.06l1.5 1.5a.75.75 0 0 1 0 1.06l-1.5 1.5a.75.75 0 1 1-1.06-1.06l.97-.97-.97-.97Z" clip-rule="evenodd"/>
</svg>
